src/components/pen-mode-two/pen.svg

<?xml version="1.0" encoding="UTF-8" standalone="no"?>
<svg width="20px" height="20px" viewBox="0 0 20 20" version="1.1" xmlns="http://www.w3.org/2000/svg" xmlns:xlink="http://www.w3.org/1999/xlink">
    <!-- Generator: Sketch 43.2 (39069) - http://www.bohemiancoding.com/sketch -->
    <title>pen</title>
    <desc>Created with Sketch.</desc>
    <defs></defs>
    <g id="Page-1" stroke="none" stroke-width="1" fill="none" fill-rule="evenodd">
        <g id="pen" fill="#575E75">
            <path d="M9.27946052,8.11513566 L11.8843907,10.7200659 L7.2902411,15.3142155 C7.13236654,15.47209 6.87976725,15.47209 6.72189269,15.3142155 L6.53244322,15.124766 L5.06420984,16.5772119 C4.98527256,16.6561492 4.89054782,16.6877241 4.78003563,16.6877241 C4.66952344,16.6877241 4.57479871,16.6561492 4.49586143,16.5772119 L4.24326214,16.3246126 L3.67491373,16.8929611 C3.59597645,16.9718983 3.48546426,17.0034732 3.39073953,17.0034732 C3.2960148,17.0034732 3.1855026,16.9718983 3.10656533,16.8929611 C2.96447822,16.7350865 2.96447822,16.4824872 3.10656533,16.3246126 L3.67491373,15.7562642 L3.42231444,15.5036649 C3.34337716,15.4247277 3.31180225,15.3300029 3.31180225,15.2194907 C3.31180225,15.1089786 3.34337716,15.0142538 3.42231444,14.9353165 L4.89054782,13.4828706 L4.6853109,13.2776337 C4.52743634,13.1197591 4.52743634,12.8671598 4.6853109,12.7092853 L9.27946052,8.11513566 Z M12.6000004,10 L10,7.30000019 L12.7689619,4.62610794 L12.1690385,4.02618462 L8.08008751,8.0993482 C8.00115023,8.17828548 7.90642549,8.22564785 7.81170076,8.22564785 C7.70118857,8.22564785 7.60646384,8.17828548 7.52752656,8.0993482 C7.369652,7.94147365 7.369652,7.70466181 7.52752656,7.54678725 L11.8848643,3.18944947 C11.9638016,3.11051219 12.0585264,3.06314982 12.1690385,3.06314982 C12.2795507,3.06314982 12.3742755,3.11051219 12.4532127,3.18944947 L13.3215228,4.07354699 L14.158258,3.23681184 C14.4740071,2.92106272 14.9792057,2.92106272 15.2949548,3.23681184 L16.7631882,4.70504522 C17.0789373,5.02079433 17.0789373,5.52599292 16.7631882,5.84174203 L12.6000004,10 Z" id="pen-icon"></path>
        </g>
    </g>
</svg>

<svg width="20" height="20" xmlns="http://www.w3.org/2000/svg">
 <!-- Generator: Sketch 43.2 (39069) - http://www.bohemiancoding.com/sketch -->
 <title>pen</title>
 <desc>Created with Sketch.</desc>

 <g>
  <title>background</title>
  <rect fill="none" id="canvas_background" height="402" width="582" y="-1" x="-1"/>
 </g>
 <g>
  <title>Layer 1</title>
  <g fill-rule="evenodd" fill="none" id="Page-1">
   <g fill="#575E75" id="pen">
    <path id="pen-icon" d="m9.27946,8.11514l2.60493,2.60493l-4.59415,4.59415c-0.15787,0.15787 -0.41047,0.15787 -0.56835,0l-0.18945,-0.18945l-1.46823,1.45244c-0.07894,0.07894 -0.17366,0.11051 -0.28417,0.11051c-0.11052,0 -0.20524,-0.03157 -0.28418,-0.11051l-0.2526,-0.2526l-0.56835,0.56835c-0.07893,0.07894 -0.18945,0.11051 -0.28417,0.11051c-0.09473,0 -0.20524,-0.03157 -0.28417,-0.11051c-0.14209,-0.15787 -0.14209,-0.41047 0,-0.56835l0.56834,-0.56835l-0.2526,-0.2526c-0.07893,-0.07893 -0.11051,-0.17366 -0.11051,-0.28417c0,-0.11051 0.03158,-0.20524 0.11051,-0.28417l1.46824,-1.45245l-0.20524,-0.20524c-0.15787,-0.15787 -0.15787,-0.41047 0,-0.56834l4.59415,-4.59415zm3.32054,1.88486l-2.6,-2.7l2.76896,-2.67389l-0.59992,-0.59993l-4.08895,4.07317c-0.07894,0.07894 -0.17366,0.1263 -0.26839,0.1263c-0.11051,0 -0.20524,-0.04736 -0.28417,-0.1263c-0.15788,-0.15788 -0.15788,-0.39469 0,-0.55256l4.35733,-4.35734c0.07894,-0.07894 0.17367,-0.1263 0.28418,-0.1263c0.11051,0 0.20524,0.04736 0.28417,0.1263l0.86831,0.8841l0.83674,-0.83674c0.31575,-0.31575 0.82095,-0.31575 1.13669,0l1.46824,1.46824c0.31575,0.31574 0.31575,0.82094 0,1.13669l-4.16319,4.15826z"/>
   </g>
  </g>
  <text stroke="#000" transform="matrix(0.3306159178519579,0,0,0.3306159178519579,9.346108992301616,-11.40003922952226) " xml:space="preserve" text-anchor="start" font-family="Helvetica, Arial, sans-serif" font-size="24" id="svg_1" y="86.159558" x="11.672523" stroke-width="0" fill="#575e76">2</text>
 </g>
</svg>
